X:1
T:The Flooded Road to Glenties
R:reel
C:Jimmy McHugh
S:Dave Cory, Magic Square
L:1/8
M:4/4
K:Bdor
FB BF  Bcaf | cfeB cBAB | FB BB Bc af | gfeg ef ff |
fgfe cfec | BF cF cdfg | afff ecef |1 cfec ABBA :|2 cfec ABBc ||
dB BB aBgB | fB BB cBAc | FB BB cAaf | gfeg effg |
fafe cfec | BFBc defg | af.ff ecfe | cfec ABBc :|
